client/public/img/killfeed/psm_killfeed.svg

<?xml version="1.0" encoding="UTF-8" standalone="no"?>
<!-- Created with Inkscape (http://www.inkscape.org/) -->

<svg
   width="29.886963"
   height="15.054688"
   viewBox="0 0 7.9075921 3.9832194"
   version="1.1"
   id="svg1"
   xml:space="preserve"
   inkscape:version="1.4.2 (1:1.4.2+202505120737+ebf0e940d0)"
   sodipodi:docname="psm_killfeed.svg"
   inkscape:export-filename="psm_killfeed.png"
   inkscape:export-xdpi="96"
   inkscape:export-ydpi="96"
   xmlns:inkscape="http://www.inkscape.org/namespaces/inkscape"
   xmlns:sodipodi="http://sodipodi.sourceforge.net/DTD/sodipodi-0.dtd"
   xmlns="http://www.w3.org/2000/svg"
   xmlns:svg="http://www.w3.org/2000/svg"><sodipodi:namedview
     id="namedview1"
     pagecolor="#ffffff"
     bordercolor="#000000"
     borderopacity="0.25"
     inkscape:showpageshadow="2"
     inkscape:pageopacity="0.0"
     inkscape:pagecheckerboard="0"
     inkscape:deskcolor="#d1d1d1"
     inkscape:document-units="px"
     inkscape:zoom="16.710735"
     inkscape:cx="15.379335"
     inkscape:cy="15.588782"
     inkscape:window-width="2560"
     inkscape:window-height="1368"
     inkscape:window-x="0"
     inkscape:window-y="0"
     inkscape:window-maximized="1"
     inkscape:current-layer="layer1" /><defs
     id="defs1" /><g
     inkscape:label="Layer 1"
     inkscape:groupmode="layer"
     id="layer1"
     transform="translate(-0.01495378,-0.00599448)"><path
       id="path17"
       style="fill:#d8d8d8;fill-opacity:1;fill-rule:evenodd;stroke:none;stroke-width:0.0636993;stroke-linecap:round;stroke-linejoin:round;stroke-miterlimit:29;stroke-dasharray:none;stroke-opacity:1"
       d="m 7.5659787,0.00599448 -2.4701335,0.5942789 0.098185,0.1183391 -0.098185,0.1023193 0.1214396,0.1570964 L 5.0958452,1.1175545 7.3075965,2.0653003 6.7381222,1.4880745 7.9225461,1.1175545 6.7381222,0.82093178 Z m -6.4213135,0.40566 v 0.0268717 l -0.00207,0.0341064 H 0.99532031 l -0.0444417,0.0831991 c 0,0 -0.24762971,0.09817 -0.46818848,0.3271118 -0.0176179,-0.020543 -0.0423334,-0.0453306 -0.0754476,-0.0687296 -0.0174959,-0.012363 -0.0604614,-0.0413412 -0.0604614,-0.0413412 -0.0593223,-0.0147 -0.0980599,-0.0225059 -0.15037841,-5.167e-4 l 0.003101,5.167e-4 -0.006201,0.001034 c 0.001096,-4.809e-4 0.002017,-0.00109 0.003101,-0.00155 l -0.0630452,-0.006201 -0.0222209,0.0506429 c -0.002652,0.0033 -0.03988348,0.0332705 -0.04960937,0.0382405 l 0.01033528,0.0599447 -0.02118733,0.0387573 0.04185791,0.0516765 0.008268,0.00517 c 0.0119009,0.024714 0.0223064,0.015288 0.0454753,0.029972 0.0314579,0.019745 0.0694628,0.026646 0.10593668,0.019637 0.0826142,0.05454 0.12689098,0.00811 0.22944336,0.00413 H 4.8772539 v -0.0795785 h 0.037724 v -0.324528 h -0.037724 v -0.0764811 h -0.044442 l -0.022221,-0.0666626 c 0,0 -0.049895,-0.0718303 -0.099736,-0.0718303 -0.04984,0 -0.094051,0.005684 -0.094051,0.005684 l -0.012402,0.026355 c -0.017363,3.48e-4 -0.03669,0.001034 -0.03669,0.001034 l -0.018604,0.0330729 H 1.5213864 l -0.077515,-0.0217041 h -0.066663 l -0.050126,-0.0113688 -0.099219,-0.005684 V 0.43852618 0.41165448 Z M 0.56278858,1.1599292 c -0.15171767,0 -0.28082113,0.040446 -0.36535238,0.075448 L 0.03155486,1.4105599 c 0,0 -0.08294096,0.1769427 0.12195638,0.243396 0.20489735,0.066453 0.18814387,-0.077564 0.36535237,0.1937866 0,0 0.12722895,0.1828783 -0.0444417,0.4929932 C 0.30275109,2.6508505 -0.07950781,3.5587979 0.09770069,3.697242 H 1.642826 c 0,0 0.080615,0.00864 0.080615,-0.1395263 0,-0.1481618 0.1741496,-0.8960694 0.1741496,-0.8960694 0,0 0.044434,-0.3488159 0.4929932,-0.3488159 0.4485588,0 0.7641889,0.049805 1.3456543,-0.6258016 0,0 0.1937091,-0.2599324 0.6201172,-0.2599324 l 0.2547648,-0.099736 c 0,0 0.081774,-0.1263069 0.2036051,-0.1539957 0,0 0.00103,-0.00568 0.0031,-0.013436 z M 3.2768348,1.504611 C 3.3155988,1.510151 3.4261797,1.604346 3.4261797,1.604346 3.5701614,1.8092438 3.3264442,1.9640145 3.3264442,1.9640145 3.0550932,2.1799879 2.705992,2.2297082 2.517708,2.2130949 2.329424,2.1964816 2.1525092,2.2186121 2.1192827,1.9195728 2.0909682,1.6647431 2.3132973,1.5942602 2.3828325,1.5779915 c 0.029134,0.017457 0.061991,0.050521 0.072347,0.1105876 0,0 0.1099088,0.4071522 0.403593,0.3875732 0,0 0.2053241,-0.056844 0.08785,-0.056844 C 2.7975107,2.0126827 2.7059563,1.962298 2.6158932,1.8017505 2.5472605,1.6794053 2.5522926,1.6164199 2.5823035,1.559388 L 3.0551429,1.5268319 Z M 1.8748532,3.7453011 1.7084551,3.839869 H 0.33179493 V 3.9892139 H 2.0154131 Z" /></g></svg>

<svg xmlns="http://www.w3.org/2000/svg" xml:space="preserve" width="29.887" height="15.055" viewBox="0 0 7.908 3.983"><path d="M7.566.006 5.096.6l.098.119-.098.102.121.157-.121.14 2.212.947-.57-.577 1.185-.37L6.738.82ZM1.145.412v.027l-.002.034H.995L.951.556S.703.654.483.883A.4.4 0 0 0 .407.814L.347.773C.287.758.249.75.197.773H.2.193h.003L.133.765l-.022.05a.4.4 0 0 1-.05.039l.01.06-.02.039.042.051.008.006c.012.024.022.015.045.03.032.02.07.026.106.02.083.054.127.007.23.003h4.395v-.08h.038V.66h-.038V.584h-.044L4.81.517s-.05-.072-.1-.072a1 1 0 0 0-.094.006l-.013.026-.036.001-.019.033H1.521L1.444.49h-.067l-.05-.012-.1-.005V.412Zm-.582.748c-.152 0-.281.04-.366.075l-.165.176s-.083.177.122.243c.204.066.188-.078.365.194 0 0 .127.183-.045.493S-.08 3.559.098 3.697h1.545s.08.009.08-.14c0-.147.175-.895.175-.895s.044-.35.493-.35c.448 0 .764.05 1.345-.625 0 0 .194-.26.62-.26l.255-.1s.082-.126.204-.154q0 0 .003-.013zm2.714.345c.039.005.15.1.15.1.143.204-.1.359-.1.359-.272.216-.621.266-.81.25-.188-.018-.364.005-.398-.294-.028-.255.194-.326.264-.342.029.017.062.05.072.11 0 0 .11.408.404.388 0 0 .205-.057.088-.057-.15-.006-.241-.057-.331-.217-.069-.123-.064-.186-.034-.243l.473-.032Zm-1.402 2.24-.167.095H.332v.15h1.683Z" style="fill:#d8d8d8;fill-opacity:1;fill-rule:evenodd;stroke:none;stroke-width:.0636993;stroke-linecap:round;stroke-linejoin:round;stroke-miterlimit:29;stroke-dasharray:none;stroke-opacity:1" transform="translate(-.015 -.006)"/></svg>
